X: 030339
T: Con Mullane's
S: M. Mulvihill
Z: B.Black
R: reel
M: 4/4
L: 1/8
K: D
DFAd BABc | d2 cA BE E2 | DFAd BABd | d2 AG FD D2 |
DFAd BABc | d2 cA BE E2 | DFAd BABd | d2 AG FDFA ||
d2 fd edfd | d2 cA BE E2 | d2 fd edfd | dBAG FDFA |
d2 fd edfd | d2 cA BE E2 | gfed edBc | dBAG FD D2 ||
